X:150
T: Fuesendsliddche (2-42), S. 113f
N: K1125
O: Luxemburg
S: KINTZELE, Guillaume: An der Ucht, Bd. 2, Luxemburg 1927]
R: Kinderlied, Heischelied]
M: 2/4
L: 1/16
K: E
EE | =G2GGA2A2 | =G2G2E2
E2 | =G2G2A2A2 | =G2G2E2
E2 | =G2G2A2A2 | =G4E2
E2 | =G2G2A2A2 | =G2GGE4 |
G2G2A2AA | =G2G2E2
E2 | =G2GGA2AA | =G2G2E4 |
G2GGA2A2 | =G4E4 |
G4A2A2 | =G4E4 |
G2G2G2G2 | A2A2=G2G2 | E4z2
E2 | =GGGGA2A2 | =G4E3
A | A2A2=G4 | E4z4 |
=G4G3E | =G4A2A2 | =G4z2
E2 | =G2G2G2E2 | =G4A2A2 | =G4z2

@@@ Tune index: 8204
